X: 126
T: No_83_Manabus_Invites_the_Ducks_to_a_Dance.krn
N: Derived from No_83_Manabus_Invites_the_Ducks_to_a_Dance.krn
%%abc-version 2.0
%%abcx-abcm2ps-target-version 5.9.1 (29 Sep 2008)
%%abc-creator hum2abc beta
%%abcx-conversion-date 2019/03/15 08:35:45
%%humdrum-veritas 2890842967
%%humdrum-veritas-data 1470268296
%%linebreak <none>
%%barnumbers 0
L: 1/8
M: 2/4
K: B clef=bass
[K:clef=bass][M:2/4]C4 [I:setbarnb 2]| 
CB, B,B, | 
B,3z | 
B,B, F,B,/G,/ | 
F,F, F,B,/G,/ | 
F,F, F,B,/G,/ | 
F,F, F,B,/G,/ | 
F,F, F,B,/G,/ | 
F,F,z2 :|]  



